X:4
T:GB/7b/4C The Bonny Bunch of Roses,O-0
%%VWML:GB-7b-4C-0
F:http://www.vwml.org/record/GB/7b/4C
T:Version 4 of 5
C:Mr. Whitehead (c. 50), Heslington, Yorks., VII. 07
C:Transcribed by Simon Furey and Lewis Jones
L:1/8
M:4/4
I:linebreak $
K:C
G2 | c2 f2 e2 d2 | cB G4 E2 | F2 GA BAGF | FE C2 C2 :| C2 | F3 E F2 GA | _B2 A2 G3 F |$ G2 f2 e2 d2 | c6 G2 | c2 f2 e2 d2 | cB G4 E2 | F2 GA BAGF | FE C2 C2 |]

